!! 00010] TT[TB
!! Eigene Aufnahme
!!!OTL: Dun ji lu wan The bend of Tanjid
!!!ARE: Neimeng
!! Ethnic Group: Menggu
!! MM, S. 791
!!!SCT: C0565
!!!YEM: Copyright 1995, estate of Helmut Schaffrath.
**kern
*ICvox
*Ivox
*M2/4
*k[]
*C:
{4e
[4a
=1
4a]
8cc
8dd
=2
4.a
8g
=3
4e
4A}
=4
{8a
8g
8g
8e
=5
4d
8e
8g
=6
[2a
=7
2a]}
=8
{8e
4c
8A
=9
4.a
8g
=10
8.a
16g
4e
=11
8d
8c
4A}
=12
{4.e
8a
=13
8e
8d
4c
=14
[2A
=15
2A]}
==
!!!AGN: NN
!! Saenger: Chao Lun Batou, der das Buch nur zum Nachschlagen
!!    benutzte und ansonsten auswendig sang. Da er aus dem Osten der
!!    Neimeng kommt, kennt er nicht so viele Lieder des Westens.
!!    Alle Lieder wurden mit erkaelteter, halber Stimme in meinem
!!    Zimmer gesungen. FOTO VORHANDEN (DIAS)  31.3.87
!!    Variante. 2 Strophen
!!!ONB: ESAC (Essen Associative Code) Database: CHINA
!!!AMT: simple duple
!!!AIN: vox
!!!EED: Helmut Schaffrath
!!!EEV: 1.0
*-
!!!ONB: Tied note syntax fixed by Craig Sapp, 2004/05/03/
